static/logos/dph.svg

<?xml version="1.0" encoding="UTF-8" standalone="no"?>
<!-- Created with Inkscape (http://www.inkscape.org/) -->

<svg
   width="128"
   height="128"
   viewBox="0 0 33.866672 33.866672"
   version="1.1"
   id="svg5"
   xml:space="preserve"
   inkscape:version="1.2.2 (b0a8486541, 2022-12-01)"
   sodipodi:docname="DatapackHub.svg"
   xmlns:inkscape="http://www.inkscape.org/namespaces/inkscape"
   xmlns:sodipodi="http://sodipodi.sourceforge.net/DTD/sodipodi-0.dtd"
   xmlns="http://www.w3.org/2000/svg"
   xmlns:svg="http://www.w3.org/2000/svg"><sodipodi:namedview
     id="namedview7"
     pagecolor="#505050"
     bordercolor="#eeeeee"
     borderopacity="1"
     inkscape:showpageshadow="0"
     inkscape:pageopacity="0"
     inkscape:pagecheckerboard="0"
     inkscape:deskcolor="#505050"
     inkscape:document-units="px"
     showgrid="true"
     inkscape:zoom="4"
     inkscape:cx="32.5"
     inkscape:cy="68.75"
     inkscape:window-width="1920"
     inkscape:window-height="1048"
     inkscape:window-x="0"
     inkscape:window-y="32"
     inkscape:window-maximized="1"
     inkscape:current-layer="layer2" /><defs
     id="defs2" /><g
     inkscape:groupmode="layer"
     id="layer2"
     inkscape:label="Layer 2"
     style="display:inline"><path
       style="opacity:1;fill:#ff631a;fill-opacity:1;stroke:none;stroke-width:0.529169"
       d="M 4.8358042,9.8527572 16.928319,16.924531 29.043005,9.8332042 16.933948,2.7542479 Z"
       id="path6835" /><path
       style="opacity:1;fill:#ff631a;fill-opacity:1;stroke:none;stroke-width:0.529169"
       d="M 16.938519,31.113366 29.063755,24.018538 29.043033,9.8332042 16.927727,16.924895 Z"
       id="path6765"
       sodipodi:nodetypes="ccccc" /><path
       style="opacity:1;fill:#dd1616;fill-opacity:1;stroke:none;stroke-width:0.529169"
       d="M 4.8111989,24.026623 4.8357979,9.8527572 16.928311,16.924531 16.938551,31.113348 Z"
       id="path6833"
       sodipodi:nodetypes="ccccc" /><path
       id="path6821"
       style="opacity:1;fill:#ffa64a;fill-opacity:1;stroke:none;stroke-width:0.529169"
       d="M 13.171808,4.9562874 8.5953423,7.6305432 20.7083,14.710216 l 0.02687,4.434355 4.525306,-2.655652 0.0088,-4.444691 z" /><path
       id="path6823"
       style="opacity:1;fill:#d63416;fill-opacity:1;stroke:none;stroke-width:0.529169"
       d="m 27.539089,17.829145 -1.506143,0.881458 -2.17e-4,1.772609 1.506366,-0.886755 z m 1.523721,4.424986 -12.129477,7.093481 0.0054,1.765736 12.120352,-7.08593 z" /><path
       id="path6827"
       style="opacity:1;fill:#9b000a;fill-opacity:1;stroke:none;stroke-width:0.529169"
       d="m 5.5658281,17.381429 v 1.774412 l 2.2658916,1.326807 V 18.7088 Z m 0.00191,2.663647 v 1.772722 l 2.262442,1.31813 v -1.772157 z m -0.7620842,2.253229 0.032814,1.744664 12.0894251,7.069927 0.0019,-2.652378 -2.258881,-1.316781 -0.01268,0.875601 z m 9.8652561,4.845432 -0.009,-1.784328 -2.272232,-1.321173 -0.0061,1.765171 z" /><path
       id="path27040"
       style="opacity:1;fill:none;fill-opacity:1;stroke:#fa9a4f;stroke-width:1.58750025;stroke-opacity:1;stroke-dasharray:none;stroke-linejoin:round;stroke-linecap:round"
       d="M 16.933853 2.7543543 L 4.8358813 9.8526301 L 4.8110766 24.026444 L 16.938504 31.113351 L 29.063864 24.018693 L 29.043193 9.8329931 L 16.933853 2.7543543 z " /><path
       style="opacity:1;fill:none;fill-opacity:1;stroke:#f7bf73;stroke-width:0.79375;stroke-linecap:round;stroke-linejoin:round;stroke-dasharray:none;stroke-opacity:1"
       d="M 29.043,9.8332042 16.927692,16.924895"
       id="path16406" /><path
       id="path19903"
       style="color:#000000;fill:#fffeae;fill-opacity:1;stroke-linecap:round;stroke-linejoin:round;-inkscape-stroke:none"
       d="m 20.316076,14.480772 0.392224,0.229444 0.0026,0.460437 4.557345,-2.667538 0.001,-0.458887 -0.395325,-0.23151 z" /><path
       style="opacity:1;fill:none;fill-opacity:1;stroke:#fffeae;stroke-width:0.79375;stroke-linecap:round;stroke-linejoin:round;stroke-dasharray:none;stroke-opacity:1"
       d="M 4.8351772,9.8531212 16.927692,16.924895 v 14.182829"
       id="path12840" /><path
       id="path17148"
       style="color:#000000;fill:#000000;stroke-linecap:round;stroke-linejoin:round;-inkscape-stroke:none"
       d="M 16.932817,0.63768717 A 2.1168668,2.1168668 0 0 0 15.863114,0.92759196 L 3.7635946,8.027417 A 2.1168668,2.1168668 0 0 0 2.7186971,9.849528 L 2.6954427,24.02334 a 2.1168668,2.1168668 0 0 0 1.0485148,1.830379 l 12.1269085,7.08794 a 2.1168668,2.1168668 0 0 0 2.13682,-0.0021 l 12.125358,-7.09414 a 2.1168668,2.1168668 0 0 0 1.046448,-1.829863 L 31.160372,9.829891 A 2.1168668,2.1168668 0 0 0 30.11134,8.0057129 L 18.002002,0.92759196 A 2.1168668,2.1168668 0 0 0 16.932817,0.63768717 Z m 0.001,2.11666663 12.109338,7.0786377 0.02067,14.1856975 L 16.938501,31.113346 4.8110758,24.02644 4.8358805,9.8526286 Z" /></g></svg>

<!--Created with Inkscape (http://www.inkscape.org/)--><svg xmlns="http://www.w3.org/2000/svg" xml:space="preserve" width="128" height="128" viewBox="0 0 33.87 33.87"><path fill="#ff631a" d="m4.84 9.85 12.09 7.07 12.11-7.09-12.1-7.08Z"/><path fill="#ff631a" d="m16.94 31.11 12.12-7.1-.02-14.18-12.11 7.1Z"/><path fill="#dd1616" d="m4.81 24.03.03-14.18 12.09 7.07v14.2Z"/><path fill="#ffa64a" d="M13.17 4.96 8.6 7.63l12.1 7.08.04 4.43 4.52-2.65v-4.45z"/><path fill="#d63416" d="m27.54 17.83-1.5.88v1.77l1.5-.88zm1.52 4.42-12.13 7.1v1.76l12.13-7.08z"/><path fill="#9b000a" d="M5.57 17.38v1.78l2.26 1.32v-1.77Zm0 2.67v1.77l2.26 1.32v-1.78zM4.8 22.3l.03 1.74 12.09 7.07v-2.65l-2.26-1.32-.01.88zm9.86 4.84v-1.78l-2.28-1.32v1.76z"/><path fill="none" stroke="#fa9a4f" stroke-linecap="round" stroke-linejoin="round" stroke-width="1.59" d="m16.93 2.75-12.1 7.1-.02 14.18 12.13 7.08 12.12-7.1-.02-14.18-12.1-7.08z"/><path fill="none" stroke="#f7bf73" stroke-linecap="round" stroke-linejoin="round" stroke-width=".79" d="m29.04 9.83-12.11 7.1"/><path fill="#fffeae" d="m20.32 14.48.39.23v.46l4.56-2.67v-.46l-.4-.23z" color="#000" style="-inkscape-stroke:none"/><path fill="none" stroke="#fffeae" stroke-linecap="round" stroke-linejoin="round" stroke-width=".79" d="m4.84 9.85 12.09 7.07v14.19"/><path d="M16.93.64a2.12 2.12 0 0 0-1.07.29l-12.1 7.1a2.12 2.12 0 0 0-1.04 1.82L2.7 24.02a2.12 2.12 0 0 0 1.04 1.83l12.13 7.1a2.12 2.12 0 0 0 2.14-.01l12.12-7.1a2.12 2.12 0 0 0 1.05-1.82l-.02-14.19a2.12 2.12 0 0 0-1.05-1.82L18.01.93a2.12 2.12 0 0 0-1.08-.3Zm0 2.11 12.11 7.08.02 14.19-12.12 7.1-12.13-7.1.03-14.17Z" color="#000" style="-inkscape-stroke:none"/></svg>
